X:266
T:
R:polska
S:Efter fanjunkar Lindbom i Sanda.
O:Gotland, Sanda
M:3/4
L:1/16
K:A
c2c2 cBAB A2c2|cecA BdBG A2ce|agfe fedc dcBA|Acec BAGF E4|
c2c2 cBAB A2c2|cecA BdBG A2ce|agfe fedc dcBA|cBAG A4 A,4::
Acec Acec Acec|d2de fedc d4|Bded Bded Bded|B2a2 agaf e4|
c2c2 cBAB A2c2|cecA BdBG A2ce|agfe fedc dcBA|cBAG A4 A,4:|

